X:1
T:Lord Randal
M:3/4
L:1/4
K:C
 B3.99999962500005/11.9999985000002 B3.99999962500005/11.9999985000002 B3.99999962500005/11.9999985000002|\
 d d d| e g e| d d B| d2 B3.99999962500005/11.9999985000002 B3.99999962500005/11.9999985000002 B3.99999962500005/11.9999985000002|\
 d d d| e g e| d d B| d3/2 z/2 B| d d B| A G B/2B/2| d d B| d3/2 z/2 G/2A/2|\
 B d e| d3/2 z/2 G/2A/2| B G A| G2||
